src/assets/svg/3/work.svg

<svg width="233" height="230" viewBox="0 0 233 230" fill="none" xmlns="http://www.w3.org/2000/svg">
<path fill-rule="evenodd" clip-rule="evenodd" d="M224.554 148.382C229.366 148.743 232.966 152.949 232.605 157.761L230.391 186.995C228.562 211.113 208.207 230 184.031 230H48.8742C24.6975 230 4.34248 211.113 2.51321 186.995L0.299441 157.761C-0.0617525 152.949 3.55018 148.743 8.36222 148.382C13.1976 148.207 17.3688 151.621 17.7416 156.445L19.9437 185.666C21.0856 200.72 33.7856 212.523 48.8742 212.523H184.031C199.119 212.523 211.831 200.72 212.961 185.666L215.175 156.445C215.548 151.621 219.824 148.195 224.554 148.382ZM131.485 0C148.996 0 163.504 13.1226 165.689 30.0493L188.636 30.0595C213.058 30.0595 232.912 49.9717 232.912 74.463V114.532C232.912 117.643 231.257 120.509 228.589 122.071C199.83 138.913 163.398 148.736 125.189 150.047L125.193 171.003C125.193 175.827 121.278 179.742 116.455 179.742C111.631 179.742 107.716 175.827 107.716 171.003L107.709 150.049C69.5377 148.751 33.1035 138.925 4.32267 122.071C1.64285 120.509 0 117.643 0 114.532V74.3465C0 49.9251 19.9123 30.0595 44.3919 30.0595L67.2206 30.0493C69.4056 13.1226 83.913 0 101.424 0H131.485ZM188.636 47.5366H44.3919C29.548 47.5366 17.4771 59.5608 17.4771 74.3465V109.441C45.1342 124.468 80.0013 132.704 116.293 132.72L116.455 132.705L116.584 132.71L122.132 132.652C156.455 131.834 189.197 123.691 215.435 109.441V74.463C215.435 59.6074 203.422 47.5366 188.636 47.5366ZM131.485 17.4771H101.424C93.5789 17.4771 86.9563 22.8166 85 30.0522H147.909C145.953 22.8166 139.33 17.4771 131.485 17.4771Z" fill="#0DA487"/>
</svg>

<?xml version="1.0" encoding="utf-8"?>
<!-- Generator: Adobe Illustrator 28.0.0, SVG Export Plug-In . SVG Version: 6.00 Build 0)  -->
<svg version="1.1" id="Capa_1" xmlns="http://www.w3.org/2000/svg" xmlns:xlink="http://www.w3.org/1999/xlink" x="0px" y="0px"
	 viewBox="0 0 233 230" style="enable-background:new 0 0 233 230;" xml:space="preserve">
<style type="text/css">
	.st0{fill-rule:evenodd;clip-rule:evenodd;fill:#D70909;}
</style>
<path class="st0" d="M224.6,148.4c4.8,0.4,8.4,4.6,8.1,9.4l-2.2,29.2c-1.8,24.1-22.2,43-46.4,43H48.9c-24.2,0-44.5-18.9-46.4-43
	l-2.2-29.2c-0.4-4.8,3.3-9,8.1-9.4c4.8-0.2,9,3.2,9.4,8.1l2.2,29.2c1.1,15.1,13.8,26.9,28.9,26.9H184c15.1,0,27.8-11.8,28.9-26.9
	l2.2-29.2C215.5,151.6,219.8,148.2,224.6,148.4z M131.5,0c17.5,0,32,13.1,34.2,30l22.9,0c24.4,0,44.3,19.9,44.3,44.4v40.1
	c0,3.1-1.7,6-4.3,7.5c-28.8,16.8-65.2,26.7-103.4,28l0,21c0,4.8-3.9,8.7-8.7,8.7c-4.8,0-8.7-3.9-8.7-8.7l0-21
	c-38.2-1.3-74.6-11.1-103.4-28c-2.7-1.6-4.3-4.4-4.3-7.5V74.3c0-24.4,19.9-44.3,44.4-44.3l22.8,0c2.2-16.9,16.7-30,34.2-30H131.5z
	 M188.6,47.5H44.4c-14.8,0-26.9,12-26.9,26.8v35.1c27.7,15,62.5,23.3,98.8,23.3l0.2,0l0.1,0l5.5-0.1c34.3-0.8,67.1-9,93.3-23.2v-35
	C215.4,59.6,203.4,47.5,188.6,47.5z M131.5,17.5h-30.1c-7.8,0-14.5,5.3-16.4,12.6h62.9C146,22.8,139.3,17.5,131.5,17.5z"/>
</svg>
